X: 525
T: Abbey Ceili Band, The
R: polka
M: 2/4
K: Gmajor
"G" BG G>A|BG GB|"D" AD AD|"D7" AB cA|"G" BG G>A|
BG GB|"D" AD FA|"G" G2 G2:|:A|"G" Bd "C" ce|"G" dg B>c|
"D" dc A2|"G" ed B>A|"G" Bd "C"ce|"G" dg B>c|"D7" dc AF|"G" G2 G2:|

